img/contacts/map.svg

<svg viewBox="0 0 20 28" fill="none" xmlns="http://www.w3.org/2000/svg"><path d="M10 0C4.5 0 0 4.7 0 10.5c0 7.7 9.2 17 9.6 17.3.1.1.3.2.4.2.1 0 .3-.1.4-.2.4-.4 9.6-9.6 9.6-17.3C20 4.7 15.5 0 10 0zm0 26.6c-1.7-1.8-8.9-9.7-8.9-16.1 0-5.1 4-9.3 8.9-9.3s8.9 4.2 8.9 9.3c0 6.4-7.2 14.3-8.9 16.1z" fill="#8E81AC"/><path d="M9.9 4.7c-3 0-5.5 2.4-5.5 5.3s2.5 5.3 5.5 5.3 5.5-2.4 5.5-5.3c0-3-2.4-5.3-5.5-5.3zm0 9.5c-2.4 0-4.4-1.9-4.4-4.2 0-2.3 2-4.2 4.4-4.2 2.4 0 4.4 1.9 4.4 4.2 0 2.3-1.9 4.2-4.4 4.2z" fill="#8E81AC"/></svg>

<svg viewBox="0 0 20 28" fill="none" xmlns="http://www.w3.org/2000/svg">
<path d="M10 0C4.5 0 0 4.7 0 10.5C0 18.2 9.2 27.5 9.6 27.8C9.7 27.9 9.9 28 10 28C10.1 28 10.3 27.9 10.4 27.8C10.8 27.4 20 18.2 20 10.5C20 4.7 15.5 0 10 0ZM10 26.6C8.3 24.8 1.1 16.9 1.1 10.5C1.1 5.4 5.1 1.2 10 1.2C14.9 1.2 18.9 5.4 18.9 10.5C18.9 16.9 11.7 24.8 10 26.6Z" fill="#8E81AC"/>
<path d="M9.9 4.7C6.9 4.7 4.4 7.1 4.4 10C4.4 12.9 6.9 15.3 9.9 15.3C12.9 15.3 15.4 12.9 15.4 10C15.4 7 13 4.7 9.9 4.7ZM9.9 14.2C7.5 14.2 5.5 12.3 5.5 10C5.5 7.7 7.5 5.8 9.9 5.8C12.3 5.8 14.3 7.7 14.3 10C14.3 12.3 12.4 14.2 9.9 14.2Z" fill="#8E81AC"/>
</svg>
